Desktop/project_createx/public/images/Careers/chat.svg

<svg width="40" height="40" viewBox="0 0 40 40" fill="none" xmlns="http://www.w3.org/2000/svg">
<path fill-rule="evenodd" clip-rule="evenodd" d="M36.5384 17.612C36.301 19.2565 35.7384 20.8196 34.9047 22.2569C34.9672 22.6128 34.9992 22.9725 34.9992 23.3338C34.9992 24.5885 34.6357 25.7893 33.9623 26.8803C33.6261 27.4249 33.5396 28.063 33.5063 28.4846C33.4682 28.9677 33.481 29.4964 33.5155 30.0043C33.5542 30.5741 33.6243 31.1723 33.7045 31.7366C33.054 31.547 32.3489 31.3564 31.676 31.2046C31.1163 31.0784 30.5436 30.9708 30.0249 30.9172C29.5724 30.8704 28.9185 30.8342 28.3338 31.0233C27.0553 31.4365 25.6485 31.6671 24.1659 31.6671C22.4027 31.6671 20.7834 31.3541 19.364 30.8104C19.0226 30.8259 18.6787 30.8338 18.3325 30.8338C16.3248 30.8338 14.3925 30.5697 12.5846 30.0818C15.2129 33.1215 19.5457 35.0004 24.1659 35.0004C25.9708 35.0004 27.7031 34.7233 29.2996 34.2141C29.3023 34.2142 29.3074 34.2141 29.315 34.214C29.356 34.2132 29.4698 34.2109 29.6824 34.2329C30.0167 34.2674 30.4466 34.3444 30.9425 34.4563C31.9297 34.679 33.0391 35.0076 33.9038 35.2821C35.7374 35.8641 37.514 34.264 37.1863 32.4034C37.0452 31.6025 36.8987 30.6252 36.8412 29.7785C36.8123 29.3527 36.8091 29.0033 36.8293 28.7468C36.8377 28.6406 36.8485 28.5739 36.8553 28.5385C37.793 26.9852 38.3326 25.2167 38.3326 23.3338C38.3326 21.2112 37.6733 19.2729 36.5384 17.612Z" fill="#7772F1"/>
<path fill-rule="evenodd" clip-rule="evenodd" d="M9.32773 9.49661C7.08113 11.2146 5.83266 13.4698 5.83266 15.833C5.83266 17.0114 6.13943 18.1463 6.71496 19.2017C6.93417 19.6037 6.99636 20.0183 7.0186 20.2991C7.04285 20.6051 7.03076 20.9197 7.00414 21.2139C6.95085 21.8028 6.82372 22.4701 6.67124 23.1274C6.49287 23.8962 6.26431 24.7162 6.03239 25.486C6.91281 25.166 7.87508 24.8381 8.78733 24.5719C9.52461 24.3568 10.2692 24.1702 10.9318 24.0654C11.5027 23.9752 12.3311 23.8864 13.0443 24.1332C14.6448 24.6869 16.4353 24.9997 18.3327 24.9997C21.9113 24.9997 25.0895 23.8886 27.3376 22.1694C29.5842 20.4514 30.8327 18.1962 30.8327 15.833C30.8327 13.4698 29.5842 11.2146 27.3376 9.49661C25.0895 7.77745 21.9113 6.66634 18.3327 6.66634C14.754 6.66634 11.5759 7.77745 9.32773 9.49661ZM7.30289 6.84875C10.1821 4.64702 14.0872 3.33301 18.3327 3.33301C22.5781 3.33301 26.4832 4.64702 29.3624 6.84875C32.2432 9.05167 34.166 12.2131 34.166 15.833C34.166 19.4529 32.2432 22.6144 29.3624 24.8173C26.4832 27.019 22.5781 28.333 18.3327 28.333C16.0942 28.333 13.9561 27.9681 12.0148 27.3041C12.0128 27.3095 11.8554 27.2941 11.4525 27.3578C10.988 27.4313 10.3952 27.5751 9.72089 27.7719C8.37845 28.1635 6.87087 28.7176 5.72255 29.1645C3.73317 29.9387 1.70658 28.0281 2.37685 25.9929C2.7321 24.9142 3.15108 23.5511 3.42414 22.3741C3.5617 21.7812 3.65096 21.2827 3.68437 20.9135C3.69596 20.7853 3.69896 20.6919 3.69829 20.6288C2.93115 19.1629 2.49932 17.5417 2.49932 15.833C2.49932 12.2131 4.42216 9.05167 7.30289 6.84875Z" fill="#7772F1"/>
</svg>

<svg xmlns="http://www.w3.org/2000/svg" width="40" height="40" fill="none"><path fill="#7772F1" fill-rule="evenodd" d="M36.538 17.612a12.9 12.9 0 0 1-1.633 4.645q.093.534.094 1.077c0 1.255-.363 2.455-1.037 3.546-.336.545-.422 1.183-.456 1.605-.038.483-.025 1.011.01 1.52.038.57.108 1.167.189 1.732-.651-.19-1.356-.38-2.029-.532a15 15 0 0 0-1.651-.288c-.453-.047-1.106-.083-1.691.106a13.6 13.6 0 0 1-4.168.644c-1.763 0-3.383-.313-4.802-.857q-.512.024-1.032.024c-2.007 0-3.94-.264-5.747-.752 2.628 3.04 6.96 4.918 11.58 4.918 1.806 0 3.538-.277 5.135-.786h.015c.041 0 .155-.003.367.019.335.034.765.111 1.26.223.988.223 2.097.552 2.962.826 1.833.582 3.61-1.018 3.282-2.879-.14-.8-.287-1.778-.345-2.624a7.4 7.4 0 0 1-.012-1.032c.009-.106.02-.173.026-.209.938-1.553 1.478-3.321 1.478-5.204 0-2.123-.66-4.061-1.795-5.722" clip-rule="evenodd"/><path fill="#7772F1" fill-rule="evenodd" d="M9.328 9.497c-2.247 1.718-3.495 3.973-3.495 6.336 0 1.178.306 2.313.882 3.369.22.402.281.816.304 1.097.024.306.012.62-.015.915-.053.589-.18 1.256-.333 1.913a39 39 0 0 1-.639 2.359c.88-.32 1.843-.648 2.755-.914a18 18 0 0 1 2.145-.507c.57-.09 1.4-.179 2.112.068 1.6.554 3.391.867 5.289.867 3.578 0 6.757-1.111 9.005-2.83 2.246-1.719 3.495-3.974 3.495-6.337s-1.249-4.618-3.495-6.336c-2.248-1.72-5.427-2.83-9.005-2.83s-6.757 1.11-9.005 2.83M7.303 6.849c2.88-2.202 6.784-3.516 11.03-3.516s8.15 1.314 11.03 3.516 4.803 5.364 4.803 8.984-1.923 6.781-4.804 8.984c-2.879 2.202-6.784 3.516-11.03 3.516-2.238 0-4.376-.365-6.317-1.029-.002.006-.16-.01-.562.054-.465.073-1.058.217-1.732.414-1.343.392-2.85.946-3.998 1.393-1.99.774-4.016-1.137-3.346-3.172.355-1.079.774-2.442 1.047-3.619.138-.593.227-1.091.26-1.46a3 3 0 0 0 .014-.285A10.3 10.3 0 0 1 2.5 15.833c0-3.62 1.923-6.781 4.804-8.984" clip-rule="evenodd"/></svg>
